build/svg/cmd/sc_changepicture.svg

<?xml version="1.0" encoding="UTF-8" standalone="no"?>
<svg
   xmlns:dc="http://purl.org/dc/elements/1.1/"
   xmlns:cc="http://creativecommons.org/ns#"
   xmlns:rdf="http://www.w3.org/1999/02/22-rdf-syntax-ns#"
   xmlns:svg="http://www.w3.org/2000/svg"
   xmlns="http://www.w3.org/2000/svg"
   xmlns:sodipodi="http://sodipodi.sourceforge.net/DTD/sodipodi-0.dtd"
   xmlns:inkscape="http://www.inkscape.org/namespaces/inkscape"
   viewBox="0 0 16 16"
   version="1.1"
   id="svg6"
   sodipodi:docname="sc_changepicture.svg"
   inkscape:export-filename="/home/jupiter007/Libreoffice yaru theme fullcolor/build/cmd/sc_changepicture.png"
   inkscape:export-xdpi="96"
   inkscape:export-ydpi="96"
   inkscape:version="0.92.4 (5da689c313, 2019-01-14)">
  <metadata
     id="metadata12">
    <rdf:RDF>
      <cc:Work
         rdf:about="">
        <dc:format>image/svg+xml</dc:format>
        <dc:type
           rdf:resource="http://purl.org/dc/dcmitype/StillImage" />
      </cc:Work>
    </rdf:RDF>
  </metadata>
  <defs
     id="defs10" />
  <sodipodi:namedview
     pagecolor="#ffffff"
     bordercolor="#666666"
     borderopacity="1"
     objecttolerance="10"
     gridtolerance="10"
     guidetolerance="10"
     inkscape:pageopacity="0"
     inkscape:pageshadow="2"
     inkscape:window-width="1920"
     inkscape:window-height="1011"
     id="namedview8"
     showgrid="true"
     inkscape:zoom="29.5"
     inkscape:cx="5.3705052"
     inkscape:cy="7.3544157"
     inkscape:window-x="0"
     inkscape:window-y="32"
     inkscape:window-maximized="1"
     inkscape:current-layer="svg6">
    <inkscape:grid
       type="xygrid"
       id="grid854" />
  </sodipodi:namedview>
  <path
     sodipodi:nodetypes="cccscsccccccccscscccccc"
     inkscape:connector-curvature="0"
     id="path4237-1"
     d="M -3,2 C -4.2582,2.0145 -5.178891,1.969396 -5.931641,2.3847656 -6.308011,2.5924256 -6.604872,2.9441525 -6.769532,3.3828125 -6.934202,3.8214825 -6.994141,4.3424 -6.994141,5 v 1.488281 4.512302 c 0,0.65761 0.0599,1.178577 0.224609,1.617188 0.16468,0.438611 0.461531,0.788524 0.837891,0.996093 0.75272,0.41513 1.673541,0.371649 2.931641,0.386719 h 0.002 6.005859 0.0039 c 1.25819,-0.0145 2.178891,0.0306 2.931641,-0.384766 0.37637,-0.20766 0.673221,-0.559386 0.837891,-0.998046 C 6.94583,12.1791 7.005909,11.658193 7.005909,11.000583 V 6.466797 5 C 7.005909,4.3424 6.946009,3.8214225 6.7813,3.3828125 6.61662,2.9442125 6.319769,2.5942787 5.943409,2.3867188 5.190639,1.9715888 4.269808,2.01508 3.011718,2 h -0.002 -6.0058591 z"
     style="font-style:normal;font-variant:normal;font-weight:normal;font-stretch:normal;font-size:15px;line-height:125%;font-family:Ubuntu;-inkscape-font-specification:Ubuntu;text-align:center;letter-spacing:0px;word-spacing:0px;writing-mode:lr-tb;text-anchor:middle;display:inline;opacity:0.6;fill:#000000;fill-opacity:1;stroke:none;stroke-width:0.99980211" />
  <path
     inkscape:connector-curvature="0"
     id="path1993"
     d="m -0.010772,3.0271848 c -1.556581,0.010796 -3.10999,-0.011752 -4.659941,0.038775 -0.461229,0.042668 -1.016188,0.2064194 -1.15534,0.7099668 -0.218994,0.6353464 -0.108414,1.3337874 -0.145796,1.9819244 -0.0078,2.297084 -0.02297,3.596428 0.02152,5.88578 0.0391,0.461929 0.202551,1.012666 0.698756,1.163666 0.632456,0.225082 1.284144,0.12274 1.935974,0.154298 1.424235,0.0068 2.850563,0.01102 4.2764202,0.01131 1.7045308,3.5e-4 1.4083878,-0.005 3.1071898,-0.01851 0.511911,-0.01201 1.183699,0.01993 1.584745,-0.405191 C 6.073853,12.009421 5.939829,11.281183 5.975501,10.645417 5.987371,8.201094 6.003191,6.734322 5.953601,4.2886225 5.904325,3.8865822 5.783609,3.4256704 5.378462,3.2441473 4.710293,2.9500499 3.952257,3.0761284 3.252541,3.0385746 1.4981342,3.026772 1.7436668,3.0260902 -0.010772,3.0271848 Z"
     style="opacity:1;vector-effect:none;fill:#d85eca;fill-opacity:1;stroke:none;stroke-width:1;stroke-linecap:round;stroke-linejoin:bevel;stroke-miterlimit:4;stroke-dasharray:none;stroke-dashoffset:0;stroke-opacity:1"
     sodipodi:nodetypes="cccccccsccccccc" />
  <path
     style="color:#000000;display:inline;overflow:visible;visibility:visible;opacity:1;fill:#ffffff;fill-opacity:1;fill-rule:nonzero;stroke:none;stroke-width:18.28524208;marker:none;enable-background:accumulate"
     d="m -2,7 -2,4 H 4 L 1.4892282,8 -0.010772,10 Z"
     id="path1099"
     inkscape:connector-curvature="0"
     sodipodi:nodetypes="cccccc" />
  <path
     style="opacity:1;vector-effect:none;fill:#ffffff;fill-opacity:1;stroke:none;stroke-width:1.88642752;stroke-linecap:round;stroke-linejoin:bevel;stroke-miterlimit:4;stroke-dasharray:none;stroke-dashoffset:0;stroke-opacity:1"
     id="path3397"
     sodipodi:type="arc"
     sodipodi:cx="1.9451823"
     sodipodi:cy="6.0483117"
     sodipodi:rx="0.94321376"
     sodipodi:ry="0.94321376"
     sodipodi:start="6.2325882"
     sodipodi:end="6.2319424"
     sodipodi:open="true"
     d="M 2.887189,6.0006082 A 0.94321376,0.94321376 0 0 1 1.9930379,6.9903107 0.94321376,0.94321376 0 0 1 1.0031911,6.0963194 0.94321376,0.94321376 0 0 1 1.8970225,5.1063283 0.94321376,0.94321376 0 0 1 2.887158,5.9999998" />
  <path
     style="font-style:normal;font-variant:normal;font-weight:normal;font-stretch:normal;font-size:15px;line-height:125%;font-family:Ubuntu;-inkscape-font-specification:Ubuntu;text-align:center;letter-spacing:0px;word-spacing:0px;writing-mode:lr-tb;text-anchor:middle;display:inline;opacity:0.6;fill:#000000;fill-opacity:1;stroke:none;stroke-width:0.99980211"
     d="m 13,1.9997086 c -1.2582,0.0145 -2.178891,-0.030604 -2.931641,0.3847656 -0.37637,0.20766 -0.673231,0.5593869 -0.837891,0.9980473 -0.16467,0.43867 -0.224609,0.959587 -0.224609,1.617187 v 1.488281 4.5123015 c 0,0.65761 0.0599,1.178577 0.224609,1.617188 0.16468,0.438611 0.461531,0.788524 0.837891,0.996093 0.75272,0.41513 1.673541,0.371649 2.931641,0.386719 h 0.002 6.005859 0.0039 c 1.25819,-0.0145 2.178891,0.0306 2.931641,-0.384766 0.37637,-0.20766 0.673221,-0.559386 0.837891,-0.998046 0.164539,-0.438671 0.224618,-0.959578 0.224618,-1.617188 V 6.4665055 4.9997085 c 0,-0.6576 -0.0599,-1.178577 -0.224609,-1.617187 C 22.61662,2.9439211 22.319769,2.5939873 21.943409,2.3864274 21.190639,1.9712974 20.269808,2.0147886 19.011718,1.9997086 h -0.002 -6.005859 z"
     id="path856"
     inkscape:connector-curvature="0"
     sodipodi:nodetypes="cccscsccccccccscscccccc" />
  <path
     sodipodi:nodetypes="cccccccsccccccc"
     style="opacity:1;vector-effect:none;fill:#d85eca;fill-opacity:1;stroke:none;stroke-width:1;stroke-linecap:round;stroke-linejoin:bevel;stroke-miterlimit:4;stroke-dasharray:none;stroke-dashoffset:0;stroke-opacity:1"
     d="m 15.989228,3.0268934 c -1.556581,0.010796 -3.10999,-0.011752 -4.659941,0.038775 -0.461229,0.042668 -1.016188,0.2064191 -1.15534,0.7099671 -0.218994,0.635346 -0.108414,1.3337869 -0.145796,1.981924 -0.0078,2.297084 -0.02297,3.596428 0.02152,5.8857795 0.0391,0.461929 0.202551,1.012666 0.698756,1.163666 0.632456,0.225082 1.284144,0.12274 1.935974,0.154298 1.424235,0.0068 2.850563,0.01102 4.276421,0.01131 1.70453,3.5e-4 1.408387,-0.005 3.107189,-0.01851 0.511911,-0.01201 1.183699,0.01993 1.584745,-0.405191 0.421097,-0.539783 0.287073,-1.268021 0.322745,-1.903787 0.01187,-2.4443225 0.02769,-3.9110945 -0.0219,-6.3567935 -0.04928,-0.402041 -0.169992,-0.862952 -0.575139,-1.044476 -0.668169,-0.294097 -1.426205,-0.1680185 -2.125921,-0.2055723 -1.754406,-0.011803 -1.508874,-0.012484 -3.263313,-0.01139 z"
     id="path858"
     inkscape:connector-curvature="0" />
  <path
     sodipodi:nodetypes="cccccc"
     inkscape:connector-curvature="0"
     id="path860"
     d="m 14,6.9997085 -2,3.9999995 h 8 l -2.510771,-2.9999995 -1.500001,2 z"
     style="color:#000000;display:inline;overflow:visible;visibility:visible;opacity:1;fill:#ffffff;fill-opacity:1;fill-rule:nonzero;stroke:none;stroke-width:18.28524208;marker:none;enable-background:accumulate" />
  <path
     d="M 18.887189,6.0003173 A 0.94321376,0.94321376 0 0 1 17.993038,6.9900198 0.94321376,0.94321376 0 0 1 17.003192,6.0960285 0.94321376,0.94321376 0 0 1 17.897023,5.1060374 0.94321376,0.94321376 0 0 1 18.887158,5.999709"
     sodipodi:open="true"
     sodipodi:end="6.2319424"
     sodipodi:start="6.2325882"
     sodipodi:ry="0.94321376"
     sodipodi:rx="0.94321376"
     sodipodi:cy="6.0480208"
     sodipodi:cx="17.945183"
     sodipodi:type="arc"
     id="path862"
     style="opacity:1;vector-effect:none;fill:#ffffff;fill-opacity:1;stroke:none;stroke-width:1.88642752;stroke-linecap:round;stroke-linejoin:bevel;stroke-miterlimit:4;stroke-dasharray:none;stroke-dashoffset:0;stroke-opacity:1" />
  <path
     id="path831"
     d="M 3.0000472,9 V 7 h 5 V 5 L 13.000047,8 8.0000472,11 V 9 Z"
     style="color:#000000;overflow:visible;opacity:0.6;fill:#020400;fill-opacity:1;stroke:#000000;stroke-width:2;stroke-linecap:round;stroke-linejoin:round;stroke-miterlimit:4;stroke-dasharray:none;stroke-opacity:1;marker:none"
     inkscape:connector-curvature="0"
     sodipodi:nodetypes="cccccccc" />
  <path
     style="color:#000000;overflow:visible;fill:#ffffff;fill-opacity:1;stroke-width:0.83333331;marker:none"
     d="M 3.0000472,9 V 7 h 5 V 5 c 0.831667,0.391667 3.2441668,1.833333 4.9999998,3 -1.755833,1.166667 -4.1683328,2.608333 -4.9999998,3 V 9 Z"
     id="path827"
     inkscape:connector-curvature="0"
     sodipodi:nodetypes="cccccccc" />
</svg>

<svg xmlns="http://www.w3.org/2000/svg" viewBox="0 0 16 16"><path d="M-3 2c-1.258.014-2.179-.03-2.932.385a1.88 1.88 0 00-.838.998c-.164.438-.224.96-.224 1.617V11.001c0 .657.06 1.178.224 1.617.165.438.462.788.838.996.753.415 1.674.372 2.932.387h6.012c1.258-.015 2.179.03 2.931-.385a1.88 1.88 0 00.838-.998c.165-.439.225-.96.225-1.617V5c0-.658-.06-1.179-.225-1.617a1.875 1.875 0 00-.838-.996C5.191 1.972 4.27 2.015 3.012 2h-6.008z" style="line-height:125%;-inkscape-font-specification:Ubuntu;text-align:center" font-weight="400" font-size="15" font-family="Ubuntu" letter-spacing="0" word-spacing="0" text-anchor="middle" opacity=".6"/><path d="M-.01 3.027c-1.557.011-3.11-.012-4.66.039-.462.043-1.017.206-1.156.71-.219.635-.108 1.334-.146 1.982-.008 2.297-.023 3.596.022 5.886.039.462.202 1.012.698 1.163.633.225 1.285.123 1.936.155 1.425.006 2.851.01 4.277.01 1.704.001 1.408-.004 3.107-.018.512-.012 1.184.02 1.585-.405.42-.54.287-1.268.323-1.904.011-2.444.027-3.91-.022-6.356-.05-.402-.17-.863-.576-1.045-.668-.294-1.426-.168-2.125-.205-1.755-.012-1.51-.013-3.264-.012z" fill="#d85eca"/><path style="marker:none" d="M-2 7l-2 4h8L1.49 8l-1.5 2z" color="#000" overflow="visible" fill="#fff"/><path d="M2.887 6a.943.943 0 01-.894.99.943.943 0 01-.99-.894.943.943 0 01.894-.99.943.943 0 01.99.894" fill="#fff"/><path style="line-height:125%;-inkscape-font-specification:Ubuntu;text-align:center" d="M13 2c-1.258.014-2.179-.03-2.932.384a1.88 1.88 0 00-.838.999c-.164.438-.224.96-.224 1.617v6c0 .658.06 1.179.224 1.617.165.44.462.789.838.997.753.415 1.674.371 2.932.386h6.012c1.258-.014 2.179.03 2.931-.384a1.88 1.88 0 00.838-.999c.165-.438.225-.96.225-1.617V5c0-.658-.06-1.179-.225-1.617a1.875 1.875 0 00-.838-.997c-.752-.415-1.673-.371-2.931-.386h-6.008z" font-weight="400" font-size="15" font-family="Ubuntu" letter-spacing="0" word-spacing="0" text-anchor="middle" opacity=".6"/><path d="M15.99 3.027c-1.557.01-3.11-.012-4.66.039-.462.042-1.017.206-1.156.71-.219.635-.108 1.333-.146 1.982-.008 2.297-.023 3.596.022 5.885.039.462.202 1.013.698 1.164.633.225 1.285.123 1.936.154 1.425.007 2.851.011 4.277.012 1.704 0 1.408-.005 3.107-.019.512-.012 1.184.02 1.585-.405.42-.54.287-1.268.323-1.904.011-2.444.027-3.911-.022-6.357-.05-.402-.17-.863-.576-1.044-.668-.294-1.426-.168-2.125-.206-1.755-.012-1.51-.012-3.264-.011z" fill="#d85eca"/><path d="M14 7l-2 4h8l-2.51-3-1.5 2z" style="marker:none" color="#000" overflow="visible" fill="#fff"/><path d="M18.887 6a.943.943 0 01-.894.99.943.943 0 01-.99-.894.943.943 0 01.894-.99.943.943 0 01.99.894" fill="#fff"/><path d="M3 9V7h5V5l5 3-5 3V9z" style="marker:none" color="#000" overflow="visible" opacity=".6" fill="#020400" stroke="#000" stroke-width="2" stroke-linecap="round" stroke-linejoin="round"/><path style="marker:none" d="M3 9V7h5V5c.832.392 3.244 1.833 5 3-1.756 1.167-4.168 2.608-5 3V9z" color="#000" overflow="visible" fill="#fff"/></svg>
